src/lib/runemarks/svg/factions-chaos-bladeborn-grandfathers-gardeners.svg

<!-- Generated by IcoMoon.io -->
<svg version="1.1" xmlns="http://www.w3.org/2000/svg" width="512" height="512" viewBox="0 0 512 512">
<title>Grandfather's Gardeners</title>
<g id="icomoon-ignore">
</g>
<path d="M168.871 65.83c-52.946 8.874-75.623 33.189-85.849 92.050-4.001 23.027 5.566 53.284 22.607 71.504 9.677 10.345 45.809 37.062 56.601 41.852 6.835 3.033 6.627 4.423-1.85 12.283-26.465 24.533-31.737 34.78-39.834 77.44-4.743 24.99-1.762 35.747 16.685 60.237 24.987 33.168 53.583 53.69 78.322 56.202 4.407 0.447 11.619 1.397 16.028 2.11 19.224 3.11 57.866-9.026 71.506-22.454 28.207-27.774 36.11-57.129 29.678-110.25-1.232-10.171-2.002-18.756-1.713-19.074 0.29-0.32 8.681 1.462 18.647 3.957 42.574 10.664 61.834 9.517 92.634-5.526 27.18-13.272 38.867-29.41 45.764-63.197 2.075-10.172 4.334-20.991 5.021-24.042 5.188-23.078-16.345-63.487-51.776-97.159-13.108-12.458-39.238-22.445-53.794-20.562-3.391 0.438-13.932 1.799-23.426 3.024-19.2 2.477-27.228 5.444-46.945 17.354-11.808 7.132-14.149 7.305-15.702 1.167-6.685-26.425-15.387-39.114-42.116-61.417-12.040-10.046-19.798-14.099-30.903-16.153-9.989-1.846-47.108-1.44-59.584 0.653zM229.428 168.828c20.302 6.166 26.725 20.746 17.879 40.585-5.653 12.68-12.789 16.543-32.986 17.865l-11.713 0.767-4.546-3.832c-14.181-11.959-14.213-35.4-0.061-47.861 13.137-11.567 15.924-12.234 31.425-7.525zM289.618 189.444c4.456 0.767 17.772 4.722 29.591 8.792 11.817 4.070 22.351 7.399 23.408 7.4 4.813 0.002 6.392 3.551 15.272 34.369 5.795 20.11 8.496 31.334 7.609 31.616-7.39 2.351-47.083 8.142-52.914 7.723l-7.152-0.517-14.204-14.096c-7.81-7.752-19.2-19.486-25.308-26.075l-11.107-11.979 3.975-8.075c3.44-6.986 4.151-10.135 5.274-23.36l1.298-15.285 8.077 4.046c4.443 2.226 11.726 4.673 16.183 5.438zM255.008 247.113c5.763 6.479 15.389 17.136 21.393 23.681 16.449 17.935 16.073 14.654 5.58 48.957-11.242 36.752-8.628 33.947-25.14 26.98-7.449-3.143-18.379-7.576-24.289-9.852-13.095-5.044-16.347-7.091-18.106-11.402-1.427-3.494-7.207-58.853-7.673-73.476l-0.272-8.499 15.931-4.007c22.397-5.633 20.368-6.107 32.578 7.618z"></path>
</svg>

<?xml version="1.0" encoding="UTF-8" standalone="no"?>
<!DOCTYPE svg PUBLIC "-//W3C//DTD SVG 1.1//EN" "http://www.w3.org/Graphics/SVG/1.1/DTD/svg11.dtd">
<svg width="100%" height="100%" viewBox="0 0 512 512" version="1.1" xmlns="http://www.w3.org/2000/svg" xmlns:xlink="http://www.w3.org/1999/xlink" xml:space="preserve" xmlns:serif="http://www.serif.com/" style="fill-rule:evenodd;clip-rule:evenodd;stroke-linejoin:round;stroke-miterlimit:2;">
    <g transform="matrix(1.23077,0,0,1.23077,-98.4621,-78.7676)">
        <path d="M168.871,65.83C115.925,74.704 93.248,99.019 83.022,157.88C79.021,180.907 88.588,211.164 105.629,229.384C115.306,239.729 151.438,266.446 162.23,271.236C169.065,274.269 168.857,275.659 160.38,283.519C133.915,308.052 128.643,318.299 120.546,360.959C115.803,385.949 118.784,396.706 137.231,421.196C162.218,454.364 190.814,474.886 215.553,477.398C219.96,477.845 227.172,478.795 231.581,479.508C250.805,482.618 289.447,470.482 303.087,457.054C331.294,429.28 339.197,399.925 332.765,346.804C331.533,336.633 330.763,328.048 331.052,327.73C331.342,327.41 339.733,329.192 349.699,331.687C392.273,342.351 411.533,341.204 442.333,326.161C469.513,312.889 481.2,296.751 488.097,262.964C490.172,252.792 492.431,241.973 493.118,238.922C498.306,215.844 476.773,175.435 441.342,141.763C428.234,129.305 402.104,119.318 387.548,121.201C384.157,121.639 373.616,123 364.122,124.225C344.922,126.702 336.894,129.669 317.177,141.579C305.369,148.711 303.028,148.884 301.475,142.746C294.79,116.321 286.088,103.632 259.359,81.329C247.319,71.283 239.561,67.23 228.456,65.176C218.467,63.33 181.348,63.736 168.872,65.829L168.871,65.83ZM229.428,168.828C249.73,174.994 256.153,189.574 247.307,209.413C241.654,222.093 234.518,225.956 214.321,227.278L202.608,228.045L198.062,224.213C183.881,212.254 183.849,188.813 198.001,176.352C211.138,164.785 213.925,164.118 229.426,168.827L229.428,168.828ZM289.618,189.444C294.074,190.211 307.39,194.166 319.209,198.236C331.026,202.306 341.56,205.635 342.617,205.636C347.43,205.638 349.009,209.187 357.889,240.005C363.684,260.115 366.385,271.339 365.498,271.621C358.108,273.972 318.415,279.763 312.584,279.344L305.432,278.827L291.228,264.731C283.418,256.979 272.028,245.245 265.92,238.656L254.813,226.677L258.788,218.602C262.228,211.616 262.939,208.467 264.062,195.242L265.36,179.957L273.437,184.003C277.88,186.229 285.163,188.676 289.62,189.441L289.618,189.444ZM255.008,247.113C260.771,253.592 270.397,264.249 276.401,270.794C292.85,288.729 292.474,285.448 281.981,319.751C270.739,356.503 273.353,353.698 256.841,346.731C249.392,343.588 238.462,339.155 232.552,336.879C219.457,331.835 216.205,329.788 214.446,325.477C213.019,321.983 207.239,266.624 206.773,252.001L206.501,243.502L222.432,239.495C244.829,233.862 242.8,233.388 255.01,247.113L255.008,247.113Z" style="fill-rule:nonzero;"/>
    </g>
</svg>
